X:1
T: Leaving the Shepherd's Inn
C:
R:Strathspey
Q: 128
K:G
M:4/4
L:1/16
|:d3e d3B A3G Bd3|g3a g3f e3d eg3|d3e d3B A3G Bd3|f3g f3e ((3d2c2B2) ((3A2B2c2) |
d3e d3B A3G Bd3|g3a g3f e3d eg3|f3g f3d cA3 F3G|A4 G4 G4 F3G|
A3B A3G FD3 FA3|d3e d3B AG3 Bd3|((3f2a2g2) ((3f2e2d2) eg3 ^ce3|d3e f3e d3c Bc3|
d3e d3B A3G Bd3|g3a g3f e3d eg3|f3g f3d cA3 F3G|A4 G4 G8:|
